**kern	**silbe	**harmony	**phrase	**leadinstrument	**rhyme	**timestamp	**harte
*ICvox	*	*M4/4	*	*	*	*	*M4/4
*VRlead	*	*	*	*	*	*	*
*Hstimme	*	*	*	*	*	*	*
*E:	*	*E:	*	*	*	*	*E:
*M4/4	*	*	*	*	*	*	*
*clefG2	*	*	*	*	*	*	*
r;	.	1r;	.	r	.	0	N.C.
=1	=1	=1	=1	=1	=1	=1	=1
*>Letter>A	*>Letter>A	*>Letter>A	*>Letter>A	*>Letter>A	*>Letter>A	*>Letter>A	*>Letter>A
*>Label>Intro	*>Label>Intro	*>Label>Intro	*>Label>Intro	*>Label>Intro	*>Label>Intro	*>Label>Intro	*>Label>Intro
1r	.	1N	newline	drums	.	0.302	N.C.
=2	=2	=2	=2	=2	=2	=2	=2
*>Letter>B	*>Letter>B	*>Letter>B	*>Letter>B	*>Letter>B	*>Letter>B	*>Letter>B	*>Letter>B
*>Label>Interlude	*>Label>Interlude	*>Label>Interlude	*>Label>Interlude	*>Label>Interlude	*>Label>Interlude	*>Label>Interlude	*>Label>Interlude
1r	.	1EM	newline	guitar	.	1.976	E:5
=3	=3	=3	=3	=3	=3	=3	=3
1r	.	2.AM	.	guitar	.	3.758	A:5
.	.	4EM	.	guitar	.	5.095	E:5
=4	=4	=4	=4	=4	=4	=4	=4
1r	.	1EM	.	guitar	.	5.54	E:5
=5	=5	=5	=5	=5	=5	=5	=5
1r	.	2EM	.	guitar	.	7.322	E:5
.	.	4GM	.	guitar	.	8.213	G:5
.	.	4AM	.	guitar	.	8.659	A:5
=6	=6	=6	=6	=6	=6	=6	=6
1r	.	1EM	newline	guitar	.	9.104	E:5
=7	=7	=7	=7	=7	=7	=7	=7
1r	.	2.AM	.	guitar	.	10.877	A:5
.	.	4EM	.	guitar	.	12.207	E:5
=8	=8	=8	=8	=8	=8	=8	=8
1r	.	1EM	newline	guitar	.	12.65	E:5
=9	=9	=9	=9	=9	=9	=9	=9
1r	.	2EM	.	guitar	.	14.426	E:5
.	.	4GM	.	guitar	.	15.313	G:5
.	.	4AM	.	guitar	.	15.757	A:5
=10	=10	=10	=10	=10	=10	=10	=10
1r	.	2AM	.	guitar	.	16.201	A:5
.	.	2EM	.	guitar	.	17.089	E:5
=11	=11	=11	=11	=11	=11	=11	=11
1r	.	1EM	.	guitar	.	17.977	E:5
=12	=12	=12	=12	=12	=12	=12	=12
1r	.	1EM	newline	guitar	.	19.753	E:5
=13	=13	=13	=13	=13	=13	=13	=13
1r	.	1EM	.	guitar	.	21.534	E:5
=14	=14	=14	=14	=14	=14	=14	=14
1r	.	1EM	.	guitar	.	23.316	E:5
=15	=15	=15	=15	=15	=15	=15	=15
2r	.	1EM	.	guitar	.	25.097	E:5
4r	.	.	.	.	.	.	.
4g	One	.	.	.	.	.	.
=16	=16	=16	=16	=16	=16	=16	=16
*>Letter>C	*>Letter>C	*>Letter>C	*>Letter>C	*>Letter>C	*>Letter>C	*>Letter>C	*>Letter>C
*>Label>Verse	*>Label>Verse	*>Label>Verse	*>Label>Verse	*>Label>Verse	*>Label>Verse	*>Label>Verse	*>Label>Verse
8g	foot	1EM	newline	voice	.	26.879	E:5
8g	on	.	.	.	.	.	.
8e	the	.	.	.	.	.	.
8g	brake,	.	.	.	A	.	.
4r	.	.	.	.	.	.	.
8r	.	.	.	.	.	.	.
8~d	and	.	.	.	.	.	.
=17	=17	=17	=17	=17	=17	=17	=17
8e	one	1EM	.	voice	.	28.66	E:5
8e	on	.	.	.	.	.	.
8~d	the	.	.	.	.	.	.
8e	gas	.	.	.	B	.	.
4r	.	.	.	.	.	.	.
4cc#	hey!	.	.	.	A	.	.
=18	=18	=18	=18	=18	=18	=18	=18
1r	.	2EM	newline	guitar	.	30.441	E:5
.	.	2GM	.	guitar	.	31.341	G:5
=19	=19	=19	=19	=19	=19	=19	=19
1r	.	2AM	.	guitar	.	32.24	A:5
.	.	4GM	.	guitar	.	33.139	G:5
.	.	4AM	.	guitar	.	33.589	A:5
=20	=20	=20	=20	=20	=20	=20	=20
1r	.	2AM	.	guitar	.	34.038	A:5
.	.	2EM	.	guitar	.	34.937	E:5
=21	=21	=21	=21	=21	=21	=21	=21
2r	.	1EM	.	guitar	.	35.837	E:5
8r	.	.	.	.	.	.	.
8g	Well,	.	.	.	.	.	.
4g	there's	.	.	.	.	.	.
=22	=22	=22	=22	=22	=22	=22	=22
4g	too	1EM	newline	voice	.	37.635	E:5
4e	much	.	.	.	.	.	.
8e	tra-	.	.	.	.	.	.
8c#	-ffic,	.	.	.	.	.	.
8r	.	.	.	.	.	.	.
8g	I	.	.	.	.	.	.
=23	=23	=23	=23	=23	=23	=23	=23
8r	.	1EM	.	voice	.	39.402	E:5
8g	can't	.	.	.	.	.	.
8r	.	.	.	.	.	.	.
[8g	pass,	.	.	.	B	.	.
4g]	_	.	.	.	.	.	.
4e	no!	.	.	.	.	.	.
=24	=24	=24	=24	=24	=24	=24	=24
1r	.	2EM	newline	guitar	.	41.169	E:5
.	.	2GM	.	guitar	.	42.057	G:5
=25	=25	=25	=25	=25	=25	=25	=25
2r	.	2AM	.	guitar	.	42.945	A:5
8r	.	4GM	.	guitar	.	43.833	G:5
8b	So	.	.	.	.	.	.
4b	I	4AM	.	guitar	.	44.278	A:5
=26	=26	=26	=26	=26	=26	=26	=26
4b	tried	1EM	newline	voice	.	44.722	E:5
4e	my	.	.	.	.	.	.
4e	best	.	.	.	.	.	.
8r	.	.	.	.	.	.	.
8c#	il-	.	.	.	.	.	.
=27	=27	=27	=27	=27	=27	=27	=27
8e	-le-	1EM	.	voice	.	46.504	E:5
[8e	-gal	.	.	.	.	.	.
8e]	_	.	.	.	.	.	.
[8g	move,	.	.	.	C	.	.
8g]	_	.	.	.	.	.	.
8c#	well	.	.	.	.	.	.
8e	ba-	.	.	.	.	.	.
8~c#	-by,	.	.	.	.	.	.
=28	=28	=28	=28	=28	=28	=28	=28
6g	black	1GM	.	voice	.	48.287	G:5
6g	and	.	.	.	.	.	.
6g	white,	.	.	.	.	.	.
8r	.	.	.	.	.	.	.
8g	come	.	.	.	.	.	.
8g	and	.	.	.	.	.	.
[8a	touched	.	.	.	.	.	.
=29	=29	=29	=29	=29	=29	=29	=29
8a]	_	1AM	.	voice	.	50.07	A:5
8a	my	.	.	.	.	.	.
8g	_	.	.	.	.	.	.
[8a	groove	.	.	.	C	.	.
4a]	_	.	.	.	.	.	.
8g#	a-	.	.	.	.	.	.
[8b	-gain!	.	.	.	.	.	.
=30	=30	=30	=30	=30	=30	=30	=30
1b_	_	1BM	newline	voice	.	51.853	B:5
=31	=31	=31	=31	=31	=31	=31	=31
8b]	_	1BM	.	voice	.	53.649	B:5
8r	.	.	.	.	.	.	.
4r	.	.	.	.	.	.	.
8r	.	.	.	.	.	.	.
8b	I'm	.	.	.	.	.	.
8b	gon-	.	.	.	.	.	.
8g	-na	.	.	.	.	.	.
=32	=32	=32	=32	=32	=32	=32	=32
*>Letter>D	*>Letter>D	*>Letter>D	*>Letter>D	*>Letter>D	*>Letter>D	*>Letter>D	*>Letter>D
*>Label>Chorus	*>Label>Chorus	*>Label>Chorus	*>Label>Chorus	*>Label>Chorus	*>Label>Chorus	*>Label>Chorus	*>Label>Chorus
4a	write	1AM	newline	voice	.	55.445	A:5
4a	me	.	.	.	.	.	.
8a	up	.	.	.	.	.	.
8g	a	.	.	.	.	.	.
4a	one	.	.	.	.	.	.
=33	=33	=33	=33	=33	=33	=33	=33
8r	.	1AM	.	voice	.	57.25	A:5
8a	twen-	.	.	.	.	.	.
8g	-ty	.	.	.	.	.	.
8a	five,	.	.	.	D	.	.
2r	.	.	.	.	.	.	.
=34	=34	=34	=34	=34	=34	=34	=34
4e	post	1EM	.	voice	.	59.056	E:5
4e	my	.	.	.	.	.	.
4e	face	.	.	.	.	.	.
8g	wan-	.	.	.	.	.	.
8e	-ted	.	.	.	.	.	.
=35	=35	=35	=35	=35	=35	=35	=35
8g	dead	1EM	.	voice	.	60.861	E:5
8g	or	.	.	.	.	.	.
8e	a-	.	.	.	.	.	.
8g	-live,	.	.	.	D	.	.
2r	.	.	.	.	.	.	.
=36	=36	=36	=36	=36	=36	=36	=36
4a	take	1AM	newline	voice	.	62.667	A:5
4a	my	.	.	.	.	.	.
8a	li-	.	.	.	.	.	.
8g	-cense,	.	.	.	.	.	.
8r	.	.	.	.	.	.	.
[8a	all	.	.	.	.	.	.
=37	=37	=37	=37	=37	=37	=37	=37
8a]	_	1AM	.	voice	.	64.47	A:5
8a	that	.	.	.	.	.	.
8g	_	.	.	.	.	.	.
8a	jive,	.	.	.	.	.	.
4r	.	.	.	.	.	.	.
8r	.	.	.	.	.	.	.
8b	I	.	.	.	.	.	.
=38	=38	=38	=38	=38	=38	=38	=38
2r	.	1BM	.	voice	.	66.274	B:5
4a	can't	.	.	.	.	.	.
8r	.	.	.	.	.	.	.
[8b	drive	.	.	.	D	.	.
=39	=39	=39	=39	=39	=39	=39	=39
4b]	_	1BM	.	voice	.	68.078	B:5
4r	.	.	.	.	.	.	.
4dd	fif-	.	.	.	.	.	.
8b	-ty	.	.	.	.	.	.
[8b	five!	.	.	.	D	.	.
=40	=40	=40	=40	=40	=40	=40	=40
*>Letter>B	*>Letter>B	*>Letter>B	*>Letter>B	*>Letter>B	*>Letter>B	*>Letter>B	*>Letter>B
*>Label>Interlude	*>Label>Interlude	*>Label>Interlude	*>Label>Interlude	*>Label>Interlude	*>Label>Interlude	*>Label>Interlude	*>Label>Interlude
8b]	_	2N	newline	guitar	.	69.882	N.C.
8r	.	.	.	.	.	.	.
4r	.	.	.	.	.	.	.
2r	.	2EM	.	guitar	.	70.771	E:5
=41	=41	=41	=41	=41	=41	=41	=41
1r	.	2.AM	.	guitar	.	71.661	A:5
.	.	4EM	.	guitar	.	72.996	E:5
=42	=42	=42	=42	=42	=42	=42	=42
2r	.	1EM	.	guitar	.	73.441	E:5
8r	.	.	.	.	.	.	.
[8b	Oh,	.	.	.	.	.	.
8b]	_	.	.	.	.	.	.
[8b	no!	.	.	.	.	.	.
=43	=43	=43	=43	=43	=43	=43	=43
4b]	_	2EM	.	guitar	.	75.22	E:5
4r	.	.	.	.	.	.	.
2r	.	4GM	.	guitar	.	76.11	G:5
.	.	4AM	.	guitar	.	76.555	A:5
=44	=44	=44	=44	=44	=44	=44	=44
4g#	Uh!	1EM	newline	guitar	.	77	E:5
=45	=45	=45	=45	=45	=45	=45	=45
.	.	2.AM	.	guitar	.	78.787	A:5
4r	.	.	.	.	.	.	.
2r	.	.	.	.	.	.	.
=45	=45	=45	=45	=45	=45	=45	=45
1r	.	.	.	.	.	.	.
.	.	4EM	.	guitar	.	80.127	E:5
=46	=46	=46	=46	=46	=46	=46	=46
1r	.	1EM	newline	guitar	.	80.573	E:5
=47	=47	=47	=47	=47	=47	=47	=47
1r	.	2EM	.	guitar	.	82.359	E:5
.	.	4GM	.	guitar	.	83.252	G:5
.	.	4AM	.	guitar	.	83.698	A:5
=48	=48	=48	=48	=48	=48	=48	=48
1r	.	2AM	.	guitar	.	84.145	A:5
.	.	2EM	.	guitar	.	85.038	E:5
=49	=49	=49	=49	=49	=49	=49	=49
1r	.	1EM	.	guitar	.	85.931	E:5
=50	=50	=50	=50	=50	=50	=50	=50
1r	.	1EM	newline	guitar	.	87.717	E:5
=51	=51	=51	=51	=51	=51	=51	=51
2r	.	1EM	.	guitar	.	89.513	E:5
8r	.	.	.	.	.	.	.
8b	So	.	.	.	.	.	.
4b	I	.	.	.	.	.	.
=52	=52	=52	=52	=52	=52	=52	=52
*>Letter>C	*>Letter>C	*>Letter>C	*>Letter>C	*>Letter>C	*>Letter>C	*>Letter>C	*>Letter>C
*>Label>Verse	*>Label>Verse	*>Label>Verse	*>Label>Verse	*>Label>Verse	*>Label>Verse	*>Label>Verse	*>Label>Verse
4e	signed	1EM	newline	voice	.	91.31	E:5
4e	my	.	.	.	.	.	.
8e	name	.	.	.	.	.	.
8d	on	.	.	.	.	.	.
8e	num-	.	.	.	.	.	.
8d	-ber	.	.	.	.	.	.
=53	=53	=53	=53	=53	=53	=53	=53
8r	.	1EM	.	voice	.	93.08	E:5
8g	twen-	.	.	.	.	.	.
8e	-ty	.	.	.	.	.	.
[8g	four,	.	.	.	E	.	.
4g]	_	.	.	.	.	.	.
4g	hey!	.	.	.	.	.	.
=54	=54	=54	=54	=54	=54	=54	=54
1r	.	2EM	newline	guitar	.	94.85	E:5
.	.	2GM	.	guitar	.	95.76	G:5
=55	=55	=55	=55	=55	=55	=55	=55
1r	.	2AM	.	guitar	.	96.669	A:5
.	.	4GM	.	guitar	.	97.578	G:5
.	.	4AM	.	guitar	.	98.032	A:5
=56	=56	=56	=56	=56	=56	=56	=56
1r	.	2AM	.	guitar	.	98.487	A:5
.	.	2EM	.	guitar	.	99.396	E:5
=57	=57	=57	=57	=57	=57	=57	=57
2r	.	1EM	.	guitar	.	100.305	E:5
8r	.	.	.	.	.	.	.
8b	Yeah	.	.	.	.	.	.
8b	the	.	.	.	.	.	.
[8b	judge	.	.	.	.	.	.
=58	=58	=58	=58	=58	=58	=58	=58
4b]	_	1EM	newline	voice	.	102.124	E:5
4b	said,	.	.	.	.	.	.
4.b	boy,	.	.	.	.	.	.
[8e	just	.	.	.	.	.	.
=59	=59	=59	=59	=59	=59	=59	=59
8d#	_	1EM	.	voice	.	103.852	E:5
16gQ	_	.	.	.	.	.	.
[8g#	one	.	.	.	.	.	.
8g#]	_	.	.	.	.	.	.
[8d	more...	.	.	.	E	.	.
4d]	_	.	.	.	.	.	.
4~e]	huh!	.	.	.	.	.	.
=60	=60	=60	=60	=60	=60	=60	=60
1r	.	2EM	newline	guitar	.	105.581	E:5
.	.	2GM	.	guitar	.	106.487	G:5
=61	=61	=61	=61	=61	=61	=61	=61
2r	.	2AM	.	guitar	.	107.392	A:5
8r	.	4GM	.	guitar	.	108.298	G:5
8b	We're	.	.	.	.	.	.
8b	gon-	4AM	.	guitar	.	108.751	A:5
8a	-na	.	.	.	.	.	.
=62	=62	=62	=62	=62	=62	=62	=62
4b	throw	1EM	newline	voice	.	109.203	E:5
4e	your	.	.	.	.	.	.
4e	ass	.	.	.	.	.	.
8e	in	.	.	.	.	.	.
8d	the	.	.	.	.	.	.
=63	=63	=63	=63	=63	=63	=63	=63
8r	.	1EM	.	voice	.	111.005	E:5
16g	ci-	.	.	.	.	.	.
[16e	-ty	.	.	.	.	.	.
8e]	_	.	.	.	.	.	.
8g	joint	.	.	.	F	.	.
4r	.	.	.	.	.	.	.
8r	.	.	.	.	.	.	.
[8a	Looked	.	.	.	.	.	.
=64	=64	=64	=64	=64	=64	=64	=64
8a]	_	1GM	.	voice	.	112.807	G:5
8a	me	.	.	.	.	.	.
8a	in	.	.	.	.	.	.
8g	the	.	.	.	.	.	.
4a	eye,	.	.	.	.	.	.
4c#	said	.	.	.	.	.	.
=65	=65	=65	=65	=65	=65	=65	=65
8r	.	1AM	.	voice	.	114.608	A:5
8a	you	.	.	.	.	.	.
8a	get	.	.	.	.	.	.
8a	my	.	.	.	.	.	.
8a	point?	.	.	.	F	.	.
8a	I	.	.	.	.	.	.
8a	said,	.	.	.	.	.	.
[8b	yeah	.	.	.	.	.	.
=66	=66	=66	=66	=66	=66	=66	=66
1b]	_	1BM	newline	voice	.	116.41	B:5
=67	=67	=67	=67	=67	=67	=67	=67
4~dd	oh,	1BM	.	voice	.	118.197	B:5
4~a	yeah!	.	.	.	.	.	.
2r	.	.	.	.	.	.	.
=68	=68	=68	=68	=68	=68	=68	=68
*>Letter>D	*>Letter>D	*>Letter>D	*>Letter>D	*>Letter>D	*>Letter>D	*>Letter>D	*>Letter>D
*>Label>Chorus	*>Label>Chorus	*>Label>Chorus	*>Label>Chorus	*>Label>Chorus	*>Label>Chorus	*>Label>Chorus	*>Label>Chorus
4a	Write	1AM	newline	voice	.	119.984	A:5
4a	me	.	.	.	.	.	.
8a	up	.	.	.	.	.	.
8g	a	.	.	.	.	.	.
4a	one	.	.	.	.	.	.
=69	=69	=69	=69	=69	=69	=69	=69
8r	.	1AM	.	voice	.	121.765	A:5
8a	twen-	.	.	.	.	.	.
8g	-ty	.	.	.	.	.	.
8a	five,	.	.	.	D	.	.
2r	.	.	.	.	.	.	.
=70	=70	=70	=70	=70	=70	=70	=70
4e	post	1EM	.	voice	.	123.545	E:5
4e	my	.	.	.	.	.	.
4e	face	.	.	.	.	.	.
8g	wan-	.	.	.	.	.	.
8e	-ted	.	.	.	.	.	.
=71	=71	=71	=71	=71	=71	=71	=71
8g	dead	1EM	.	voice	.	125.326	E:5
8g	or	.	.	.	.	.	.
8e	a-	.	.	.	.	.	.
8g	-live.	.	.	.	D	.	.
2r	.	.	.	.	.	.	.
=72	=72	=72	=72	=72	=72	=72	=72
4a	Take	1AM	newline	voice	.	127.107	A:5
4a	my	.	.	.	.	.	.
8a	li-	.	.	.	.	.	.
8e	-cense,	.	.	.	.	.	.
8r	.	.	.	.	.	.	.
[8a	all	.	.	.	.	.	.
=73	=73	=73	=73	=73	=73	=73	=73
8a]	_	1AM	.	voice	.	128.919	A:5
[8cc	that	.	.	.	.	.	.
8cc]	_	.	.	.	.	.	.
[8g	jive,	.	.	.	D	.	.
8g]	_	.	.	.	.	.	.
8r	.	.	.	.	.	.	.
8r	.	.	.	.	.	.	.
8b	I	.	.	.	.	.	.
=74	=74	=74	=74	=74	=74	=74	=74
2r	.	1BM	.	voice	.	130.73	B:5
4b	can't	.	.	.	.	.	.
8r	.	.	.	.	.	.	.
[8b	drive	.	.	.	D	.	.
=75	=75	=75	=75	=75	=75	=75	=75
4b]	_	1BM	.	voice	.	132.542	B:5
4r	.	.	.	.	.	.	.
4dd	fif-	.	.	.	.	.	.
8b	-ty	.	.	.	.	.	.
[8b	five!	.	.	.	D	.	.
=76	=76	=76	=76	=76	=76	=76	=76
*>Letter>E	*>Letter>E	*>Letter>E	*>Letter>E	*>Letter>E	*>Letter>E	*>Letter>E	*>Letter>E
*>Label>Bridge	*>Label>Bridge	*>Label>Bridge	*>Label>Bridge	*>Label>Bridge	*>Label>Bridge	*>Label>Bridge	*>Label>Bridge
1b_	_	1EM	newline	voice	.	134.354	E:5
=77	=77	=77	=77	=77	=77	=77	=77
2b]	_	2.AM	.	voice	.	136.13	A:5
8e	_	.	.	.	.	.	.
8~cc#	Oh,	.	.	.	.	.	.
4~b	yeah!	4EM	.	voice	.	137.462	E:5
=78	=78	=78	=78	=78	=78	=78	=78
2r	.	1DM	.	voice	.	137.907	D:5
4f#	I	.	.	.	.	.	.
4f#	can't	.	.	.	.	.	.
=79	=79	=79	=79	=79	=79	=79	=79
4f#	drive	1DM	.	voice	D	139.683	D:5
4r	.	.	.	.	.	.	.
4f#	fif-	.	.	.	.	.	.
8f#	-ty	.	.	.	.	.	.
[8g#	five!	.	.	.	D	.	.
=80	=80	=80	=80	=80	=80	=80	=80
8g	_	1EM	newline	voice	.	141.459	E:5
8g#]	_	.	.	.	.	.	.
4r	.	.	.	.	.	.	.
2r	.	.	.	.	.	.	.
=81	=81	=81	=81	=81	=81	=81	=81
1r	.	1EM	.	voice	.	143.229	E:5
=82	=82	=82	=82	=82	=82	=82	=82
2r	.	1DM	.	voice	.	144.999	D:5
4f#	I	.	.	.	.	.	.
4f#	can't	.	.	.	.	.	.
=83	=83	=83	=83	=83	=83	=83	=83
4f#	drive	1DM	.	voice	D	146.769	D:5
4r	.	.	.	.	.	.	.
4f#	fif-	.	.	.	.	.	.
8f#	-ty	.	.	.	.	.	.
[8g#	five!	.	.	.	D	.	.
=84	=84	=84	=84	=84	=84	=84	=84
8g	_	1EM	newline	voice	.	148.54	E:5
8g#]	_	.	.	.	.	.	.
4r	.	.	.	.	.	.	.
2r	.	.	.	.	.	.	.
=85	=85	=85	=85	=85	=85	=85	=85
1r	.	1EM	.	voice	.	150.339	E:5
=86	=86	=86	=86	=86	=86	=86	=86
2r	.	1DM	.	voice	.	152.138	D:5
4f#	I	.	.	.	.	.	.
4f#	can't	.	.	.	.	.	.
=87	=87	=87	=87	=87	=87	=87	=87
4f#	drive	1DM	.	voice	D	153.938	D:5
4r	.	.	.	.	.	.	.
4f#	fif-	.	.	.	.	.	.
8f#	-ty	.	.	.	.	.	.
[8g#	five!	.	.	.	D	.	.
=88	=88	=88	=88	=88	=88	=88	=88
8g	_	1EM	newline	voice	.	155.737	E:5
8g#]	_	.	.	.	.	.	.
4r	.	.	.	.	.	.	.
2r	.	.	.	.	.	.	.
=89	=89	=89	=89	=89	=89	=89	=89
1r	.	1EM	.	voice	.	157.507	E:5
=90	=90	=90	=90	=90	=90	=90	=90
2r	.	1DM	.	voice	.	159.278	D:5
4f#	I	.	.	.	.	.	.
4f#	can't	.	.	.	.	.	.
=91	=91	=91	=91	=91	=91	=91	=91
4f#	drive	1DM	.	voice	D	161.048	D:5
4r	.	.	.	.	.	.	.
4a	fif-	.	.	.	.	.	.
8a	-ty	.	.	.	.	.	.
[8b	five!	.	.	.	D	.	.
=92	=92	=92	=92	=92	=92	=92	=92
2.b]	_	2.EM	newline	guitar	.	162.818	E:5
4r	.	4GM	.	guitar	.	164.2	G:5
=93	=93	=93	=93	=93	=93	=93	=93
1r	.	1EM	.	guitar	.	164.66	E:5
=94	=94	=94	=94	=94	=94	=94	=94
1r	.	2.EM	.	guitar	.	166.502	E:5
.	.	4GM	.	guitar	.	167.884	G:5
=95	=95	=95	=95	=95	=95	=95	=95
2r	.	2EM	.	guitar	.	168.344	E:5
4r	.	2DM	.	guitar	.	169.265	D:5
4~b	Uh!	.	.	.	.	.	.
=96	=96	=96	=96	=96	=96	=96	=96
1r	.	1EM	newline	guitar	.	170.186	E:5
=97	=97	=97	=97	=97	=97	=97	=97
1r	.	1EM	.	guitar	.	171.983	E:5
=98	=98	=98	=98	=98	=98	=98	=98
1r	.	1EM	.	guitar	.	173.779	E:5
=99	=99	=99	=99	=99	=99	=99	=99
2r	.	1EM	.	guitar	.	175.575	E:5
8r	.	.	.	.	.	.	.
8b	When	.	.	.	.	.	.
4b	I	.	.	.	.	.	.
=100	=100	=100	=100	=100	=100	=100	=100
*>Letter>C2	*>Letter>C2	*>Letter>C2	*>Letter>C2	*>Letter>C2	*>Letter>C2	*>Letter>C2	*>Letter>C2
*>Label>Verse	*>Label>Verse	*>Label>Verse	*>Label>Verse	*>Label>Verse	*>Label>Verse	*>Label>Verse	*>Label>Verse
4b	drive	1EM	newline	voice	.	177.371	E:5
4e	that	.	.	.	.	.	.
8e	slow,	.	.	.	.	.	.
8c#	you	.	.	.	.	.	.
8e	know	.	.	.	.	.	.
8c#	it's	.	.	.	.	.	.
=101	=101	=101	=101	=101	=101	=101	=101
4g	hard	1EM	.	voice	.	179.144	E:5
8e	to	.	.	.	.	.	.
[8g	steer.	.	.	.	G	.	.
4g]	_	.	.	.	.	.	.
4r	.	.	.	.	.	.	.
=102	=102	=102	=102	=102	=102	=102	=102
1r	.	2EM	newline	guitar	.	180.918	E:5
.	.	2GM	.	guitar	.	181.838	G:5
=103	=103	=103	=103	=103	=103	=103	=103
2r	.	2AM	.	guitar	.	182.758	A:5
8r	.	4GM	.	guitar	.	183.678	G:5
8b	And	.	.	.	.	.	.
8b	I	4AM	.	guitar	.	184.139	A:5
[8b	can't	.	.	.	.	.	.
=104	=104	=104	=104	=104	=104	=104	=104
4b]	_	1EM	newline	voice	.	184.599	E:5
8b	get	.	.	.	.	.	.
8b	my	.	.	.	.	.	.
4b	car	.	.	.	.	.	.
8b	out	.	.	.	.	.	.
8a	of	.	.	.	.	.	.
=105	=105	=105	=105	=105	=105	=105	=105
8r	.	1EM	.	voice	.	186.384	E:5
8b	se-	.	.	.	.	.	.
8a	-cond	.	.	.	.	.	.
[8b	gear	.	.	.	G	.	.
4b]	_	.	.	.	.	.	.
4r	.	.	.	.	.	.	.
=106	=106	=106	=106	=106	=106	=106	=106
1r	.	2EM	newline	guitar	.	188.17	E:5
.	.	2GM	.	guitar	.	189.077	G:5
=107	=107	=107	=107	=107	=107	=107	=107
2r	.	2AM	.	guitar	.	189.985	A:5
8r	.	4GM	.	guitar	.	190.892	G:5
8b	What	.	.	.	.	.	.
8b	used	4AM	.	guitar	.	191.346	A:5
8a	to	.	.	.	.	.	.
=108	=108	=108	=108	=108	=108	=108	=108
4b	take	1EM	newline	voice	.	191.8	E:5
4e	two	.	.	.	.	.	.
8e	ho-	.	.	.	.	.	.
8d	-urs	.	.	.	.	.	.
8r	.	.	.	.	.	.	.
[8g	now	.	.	.	.	.	.
=109	=109	=109	=109	=109	=109	=109	=109
16g]	_	1EM	.	voice	.	193.604	E:5
8.g	takes	.	.	.	.	.	.
8.g	all	.	.	.	.	.	.
[16g	day	.	.	.	A	.	.
4g]	_	.	.	.	.	.	.
4r	.	.	.	.	.	.	.
=110	=110	=110	=110	=110	=110	=110	=110
2r	.	1GM	.	voice	.	195.408	G:5
8r	.	.	.	.	.	.	.
8a	It	.	.	.	.	.	.
8a	took	.	.	.	.	.	.
8g	me	.	.	.	.	.	.
=111	=111	=111	=111	=111	=111	=111	=111
4a	six-	1AM	.	voice	.	197.212	A:5
4a	-teen	.	.	.	.	.	.
8a	ho-	.	.	.	.	.	.
8~g	-urs	.	.	.	.	.	.
8c#	to	.	.	.	.	.	.
[8b	get	.	.	.	.	.	.
=112	=112	=112	=112	=112	=112	=112	=112
8b]	_	1BM	newline	voice	.	199.017	B:5
8b	to	.	.	.	.	.	.
8b	L	.	.	.	.	.	.
[8b	A!	.	.	.	A	.	.
2b_	_	.	.	.	.	.	.
=113	=113	=113	=113	=113	=113	=113	=113
2b]	_	1BM	.	voice	.	200.835	B:5
8r	.	.	.	.	.	.	.
8b	Go	.	.	.	.	.	.
8b	on	.	.	.	.	.	.
8g#	and	.	.	.	.	.	.
=114	=114	=114	=114	=114	=114	=114	=114
*>Letter>D	*>Letter>D	*>Letter>D	*>Letter>D	*>Letter>D	*>Letter>D	*>Letter>D	*>Letter>D
*>Label>Chorus	*>Label>Chorus	*>Label>Chorus	*>Label>Chorus	*>Label>Chorus	*>Label>Chorus	*>Label>Chorus	*>Label>Chorus
4a	write	1AM	newline	voice	.	202.652	A:5
4a	me	.	.	.	.	.	.
8a	up	.	.	.	.	.	.
8g	a	.	.	.	.	.	.
4a	one	.	.	.	.	.	.
=115	=115	=115	=115	=115	=115	=115	=115
8r	.	1AM	.	voice	.	204.455	A:5
8a	twen-	.	.	.	.	.	.
8g	-ty	.	.	.	.	.	.
8a	five,	.	.	.	D	.	.
2r	.	.	.	.	.	.	.
=116	=116	=116	=116	=116	=116	=116	=116
4e	post	1EM	.	voice	.	206.257	E:5
4e	my	.	.	.	.	.	.
4e	face	.	.	.	.	.	.
8g	want-	.	.	.	.	.	.
8e	-ed	.	.	.	.	.	.
=117	=117	=117	=117	=117	=117	=117	=117
8g	dead	1EM	.	voice	.	208.06	E:5
8g	or	.	.	.	.	.	.
8e	a-	.	.	.	.	.	.
8g	-live.	.	.	.	D	.	.
2r	.	.	.	.	.	.	.
=118	=118	=118	=118	=118	=118	=118	=118
4a	Take	1AM	newline	voice	.	209.862	A:5
4a	my	.	.	.	.	.	.
8a	li-	.	.	.	.	.	.
8g	-cense	.	.	.	.	.	.
8c#	n-	.	.	.	.	.	.
[8a	-all	.	.	.	.	.	.
=119	=119	=119	=119	=119	=119	=119	=119
8a]	_	1AM	.	voice	.	211.667	A:5
[8cc	that	.	.	.	.	.	.
8cc]	_	.	.	.	.	.	.
[8g	jive	.	.	.	D	.	.
8g]	_	.	.	.	.	.	.
8r	.	.	.	.	.	.	.
8r	.	.	.	.	.	.	.
8b	I	.	.	.	.	.	.
=120	=120	=120	=120	=120	=120	=120	=120
2r	.	1BM	.	voice	.	213.472	B:5
4b	can't	.	.	.	.	.	.
8r	.	.	.	.	.	.	.
[8b	drive	.	.	.	D	.	.
=121	=121	=121	=121	=121	=121	=121	=121
4b]	_	1BM	.	voice	.	215.276	B:5
4r	.	.	.	.	.	.	.
4dd	fif-	.	.	.	.	.	.
8b	-ty	.	.	.	.	.	.
[8b	five!	.	.	.	D	.	.
=122	=122	=122	=122	=122	=122	=122	=122
*>Letter>B2	*>Letter>B2	*>Letter>B2	*>Letter>B2	*>Letter>B2	*>Letter>B2	*>Letter>B2	*>Letter>B2
*>Label>Outro	*>Label>Outro	*>Label>Outro	*>Label>Outro	*>Label>Outro	*>Label>Outro	*>Label>Outro	*>Label>Outro
1b_	_	1EM	newline	guitar	.	217.081	E:5
=123	=123	=123	=123	=123	=123	=123	=123
4b]	_	2.AM	.	guitar	.	218.86	A:5
4r	.	.	.	.	.	.	.
2r	.	.	.	.	.	.	.
.	.	4EM	.	guitar	.	220.195	E:5
=124	=124	=124	=124	=124	=124	=124	=124
2r	.	1EM	.	guitar	.	220.639	E:5
8r	.	.	.	.	.	.	.
[8b	No,	.	.	.	.	.	.
8b]	_	.	.	.	.	.	.
[8b	no,	.	.	.	.	.	.
=125	=125	=125	=125	=125	=125	=125	=125
8b]	_	2EM	.	guitar	.	222.418	E:5
[8b	no,	.	.	.	.	.	.
8b]	_	.	.	.	.	.	.
[8b	I	.	.	.	.	.	.
8b]	_	4GM	.	guitar	.	223.308	G:5
[8b	can't	.	.	.	.	.	.
8b]	_	4AM	.	guitar	.	223.753	A:5
[8b	drive!	.	.	.	D	.	.
=126	=126	=126	=126	=126	=126	=126	=126
8b]	_	1EM	newline	voice	.	224.197	E:5
8r	.	.	.	.	.	.	.
4r	.	.	.	.	.	.	.
4g 4b 4dd	I	.	.	.	.	.	.
4g 4b 4dd	can't	.	.	.	.	.	.
=127	=127	=127	=127	=127	=127	=127	=127
4g 4b 4cc#	drive	2.AM	.	voice	D	225.988	A:5
4r	.	.	.	.	.	.	.
4g 4b 4dd	fif-	.	.	.	.	.	.
8f# 8a 8cc#	-ty	4EM	.	voice	.	227.331	E:5
8f# 8a 8cc#	five!	.	.	.	D	.	.
=128	=128	=128	=128	=128	=128	=128	=128
4e 4g 4b	_	1EM	.	voice	.	227.779	E:5
4r	.	.	.	.	.	.	.
2r	.	.	.	.	.	.	.
=129	=129	=129	=129	=129	=129	=129	=129
4r	.	2EM	.	voice	.	229.57	E:5
8r	.	.	.	.	.	.	.
[8b	I	.	.	.	.	.	.
8b]	_	4GM	.	voice	.	230.465	G:5
[8b	can't	.	.	.	.	.	.
8b]	_	4AM	.	voice	.	230.913	A:5
[8b	drive	.	.	.	D	.	.
=130	=130	=130	=130	=130	=130	=130	=130
*>Label>>Fadeout	*>Label>>Fadeout	*>Label>>Fadeout	*>Label>>Fadeout	*>Label>>Fadeout	*>Label>>Fadeout	*>Label>>Fadeout	*>Label>>Fadeout
8b]	.	1EM	newline	voice	.	231.361	E:5
8r	.	.	.	.	.	.	.
4r	.	.	.	.	.	.	.
4g 4b 4dd	I	.	.	.	.	.	.
4g 4b 4dd	can't	.	.	.	.	.	.
=131	=131	=131	=131	=131	=131	=131	=131
4g 4b 4cc#	drive	2.AM	.	voice	D	233.146	A:5
4r	.	.	.	.	.	.	.
4g 4b 4dd	fif-	.	.	.	.	.	.
8f# 8a 8cc#	-ty	4EM	.	voice	.	234.486	E:5
8f# 8a 8cc#	five!	.	.	.	D	.	.
=132	=132	=132	=132	=132	=132	=132	=132
4e 4g 4b	_	1EM	.	voice	.	234.932	E:5
4r	.	.	.	.	.	.	.
2r	.	.	.	.	.	.	.
=133	=133	=133	=133	=133	=133	=133	=133
1r	.	2EM	.	voice	.	236.718	E:5
.	.	4GM	.	voice	.	237.611	G:5
.	.	4AM	.	voice	.	238.057	A:5
=134	=134	=134	=134	=134	=134	=134	=134
2r	.	1EM	newline	voice	.	238.503	E:5
4g 4b 4dd	I	.	.	.	.	.	.
4g 4b 4dd	can't	.	.	.	.	.	.
=135	=135	=135	=135	=135	=135	=135	=135
4g 4b 4cc#	drive	2.AM	.	voice	D	240.297	A:5
4r	.	.	.	.	.	.	.
4g 4b 4dd	fif-	.	.	.	.	.	.
8f# 8a 8cc#	-ty	4EM	.	voice	.	241.641	E:5
8f# 8a 8cc#	five!	.	.	.	D	.	.
=136	=136	=136	=136	=136	=136	=136	=136
4e 4g 4b	_	1EM	.	voice	.	242.09	E:5
4r	.	.	.	.	.	.	.
2r	.	.	.	.	.	.	.
=137	=137	=137	=137	=137	=137	=137	=137
1r	.	2EM	.	voice	.	243.883	E:5
.	.	4GM	.	voice	.	244.779	G:5
.	.	4AM	.	voice	.	245.228	A:5
=138	=138	=138	=138	=138	=138	=138	=138
2r	.	1EM	newline	voice	.	245.676	E:5
4g 4b 4dd	I	.	.	.	.	.	.
4g 4b 4dd	can't	.	.	.	.	.	.
=139	=139	=139	=139	=139	=139	=139	=139
4g 4b 4cc#	drive	2.AM	.	voice	D	246.272	A:5
4r	.	.	.	.	.	.	.
4g 4b 4dd	fif-	.	.	.	.	.	.
8f# 8a 8cc#	-ty	4EM	.	voice	.	246.718	E:5
8f# 8a 8cc#	five!	.	.	.	D	.	.
=140	=140	=140	=140	=140	=140	=140	=140
4e 4g 4b	_	1EM	.	voice	.	246.867	E:5
4r	.	.	.	.	.	.	.
2r	.	.	.	.	.	.	.
=141	=141	=141	=141	=141	=141	=141	=141
1r	.	2EM	.	voice	.	247.463	E:5
.	.	4GM	.	voice	.	247.761	G:5
.	.	4AM	.	voice	.	247.91	A:5
r;	.	1r;	.	r	.	248.059	N.C.
r;	.	1r;	.	r	.	249.966	N.C.
*-	*-	*-	*-	*-	*-	*-	*-
!!!BillboardChartDate: 1984/11/17
!!!BillboardPeak: 26
!!!BillboardWeeksOnChart: 16
!!!COC: Sammy Hagar
!!!ENC: Nathaniel Condit-Schultz
!!!EST: Awating manual error checking and editing.
!!!OTL: I Can't Drive 55
!!!RDF**chordsym: original McGill chord annotation + (implied pitch class set, with bass pitch in first position)
!!!RDF**harmony: **recip + pitch class of root + harmonic quality
!!!RDF**leadinstrument: original McGill primary instrumentation annotation
!!!RDF**phrase: newline = linebreak in original McGill transcription
!!!RDF**timestamp: McGill audio timestamp in seconds
!!!RDT: 2017/01/12/
!!!SampleActualRank: 27
!!!SampleID#: 0353
!!!SampleTargetRank: 27
